svgs/sharp-thin/square-question.svg

<svg xmlns="http://www.w3.org/2000/svg" viewBox="0 0 448 512"><!--! Font Awesome Pro 6.6.0 by @fontawesome - https://fontawesome.com License - https://fontawesome.com/license (Commercial License) Copyright 2024 Fonticons, Inc. --><path d="M16 48l0 416 416 0 0-416L16 48zM0 32l16 0 416 0 16 0 0 16 0 416 0 16-16 0L16 480 0 480l0-16L0 48 0 32zM136 200c0-30.9 25.1-56 56-56l56.2 0c35.2 0 63.8 28.6 63.8 63.8c0 21.4-10.8 41.5-28.7 53.3L232 294.9l0 25.1 0 8-16 0 0-8 0-29.5 0-4.3 3.6-2.4 54.9-36.2c13.4-8.8 21.5-23.8 21.5-39.9c0-26.4-21.4-47.8-47.8-47.8L192 160c-22.1 0-40 17.9-40 40l0 6.5-16 0 0-6.5zm72 152l32 0 0 32-32 0 0-32z"/></svg>

<svg xmlns="http://www.w3.org/2000/svg" viewBox="0 0 448 512"><!--! Font Awesome Pro 6.5.2 by @fontawesome - https://fontawesome.com License - https://fontawesome.com/license (Commercial License) Copyright 2024 Fonticons, Inc. --><path d="M16 48V464H432V48H16zM0 32H16 432h16V48 464v16H432 16 0V464 48 32zM136 200c0-30.9 25.1-56 56-56h56.2c35.2 0 63.8 28.6 63.8 63.8c0 21.4-10.8 41.5-28.7 53.3L232 294.9V320v8H216v-8V290.5v-4.3l3.6-2.4 54.9-36.2c13.4-8.8 21.5-23.8 21.5-39.9c0-26.4-21.4-47.8-47.8-47.8H192c-22.1 0-40 17.9-40 40l0 6.5-16 0V200zm72 152h32v32H208V352z"/></svg>
